src/components/icons/assets/wiki.svg

<svg width="24" height="16" viewBox="0 0 24 16" fill="none" xmlns="http://www.w3.org/2000/svg">
<path d="M24 0.0637401L23.9888 0.521169C22.9352 0.551164 22.3015 1.11358 21.8966 2.03218C20.9592 4.19934 18.0234 11.0308 16.0737 15.4776H15.5638L12.493 8.23746C11.2745 10.6221 9.9322 13.1117 8.77363 15.4776C8.76238 15.4888 8.21122 15.4776 8.21122 15.4663C6.45274 11.3532 4.60803 7.27011 2.84581 3.14576C2.41837 2.14466 0.993595 0.521169 0.0112482 0.532417C0.0112482 0.416185 0 0.157475 0 0H6.0703V0.521169C5.35041 0.562412 4.09061 1.01984 4.44681 1.80347C5.26793 3.66693 8.3312 10.8133 9.15607 12.6243C9.71848 11.5107 11.3232 8.52992 11.9794 7.27011C11.4582 6.20903 9.78222 2.24965 9.24981 1.27105C8.88611 0.603656 7.89627 0.543665 7.15763 0.532417V0.0112482L12.5005 0.0224964V0.51367C11.7732 0.536166 11.072 0.806124 11.3982 1.49227C12.1069 2.99203 12.5455 4.04562 13.2017 5.4179C13.4117 5.01297 14.5027 2.81581 15.0052 1.63849C15.3389 0.866115 14.8589 0.566162 13.5579 0.536166C13.5691 0.401187 13.5579 0.149977 13.5691 0.0262459C15.2339 0.0149977 17.7347 0.0149976 18.1847 0.00374936V0.51367C17.341 0.543665 16.4674 0.993595 16.0062 1.70223L13.7866 6.30651C14.0266 6.91017 16.16 11.6607 16.3812 12.1818L20.9705 1.586C20.648 0.719888 19.6057 0.532417 19.2007 0.524918V0.00374936L23.9925 0.044993L24 0.0637401Z" fill="#616161"/>
</svg>

<svg viewBox="0 0 24 16" xmlns="http://www.w3.org/2000/svg"><path d="M24 .064l-.011.457c-1.054.03-1.688.593-2.092 1.511-.938 2.167-3.874 8.999-5.823 13.446h-.51l-3.071-7.24c-1.219 2.384-2.56 4.874-3.72 7.24-.01.01-.562 0-.562-.012-1.758-4.113-3.603-8.196-5.365-12.32C2.418 2.145.994.52.01.532.011.416 0 .157 0 0h6.07v.521c-.72.041-1.98.499-1.623 1.282.82 1.864 3.884 9.01 4.71 10.821.561-1.113 2.166-4.094 2.822-5.354-.52-1.061-2.197-5.02-2.73-5.999C8.887.604 7.897.544 7.159.532v-.52l5.343.01v.492c-.728.022-1.429.292-1.103.978.709 1.5 1.148 2.554 1.804 3.926.21-.405 1.3-2.602 1.803-3.78C15.34.866 14.86.566 13.558.536c.011-.135 0-.386.011-.51 1.665-.011 4.166-.011 4.616-.022v.51c-.844.03-1.718.48-2.179 1.188l-2.22 4.605c.24.603 2.374 5.354 2.595 5.875l4.59-10.596C20.648.72 19.606.532 19.2.525V.004l4.791.041.008.019z"/></svg>
